!!!!SEGMENT: pl-wtm--r-1461--012_stefani-jozef--wszechstronne-cwiczenia-glosowe-seksty-z-portamento.krn
!!!cenid: 18xx:2189
!!!COM: Stefani, Józef
!!!COM-rismid: pe30024097
!!!CDT: 1800/04/16-1876/03/19
!!!CNT: Polish
!!!GTL: Wszechstronne ćwiczenia głosowe
!!!OTL: Seksty z portamento
!!!PDT:
!!!AGN: Secular
!!!SMS-siglum: PL-Wtm
!!!SMS-shelfmark: R 1461
!!!SMS-shelfwork: 012 G
!!!SMS-variant:
!!!SMS-altvar:
!!!NIFC-rismid: 1001120710
!!!URL-scan: http://repozytorium.nifc.pl/skany/pl-wtm-nut--r1461
!!!ONB-nifc: UWAGA: skan 0009, s. 14
**kern	**kern	**kern	**text	**dynam
*part3	*part2	*part1	*part1	*part1
*staff3	*staff2	*staff1	*staff1	*
*I"Fortepian	*I"Fortepian	*I"Sopran/Tenor	*	*
*clefF4	*clefG2	*clefG2	*	*
*k[]	*k[]	*k[]	*	*
*C:	*C:	*C:	*	*
*M4/4	*M4/4	*M4/4	*	*
*met(c)	*met(c)	*met(c)	*	*
=1	=1	=1	=1	=1
*2\right	*	*	*	*
!	!	!LO:TX:t=P:problem:all\middle or right:global	!	!LO:HP:a
2C 2CC\	4r	(<2c/	do	<
.	4c 4G< 4E</	.	.	.
.	.	16qqa/	.	[
4r	2a 2f/	4a/)	la	.
4F 4FF\	.	4r	.	.
=2	=2	=2	=2	=2
!	!	!	!	!LO:HP:a
2G 2GG\	4r	(<2d/	re	<
.	4d 4B/	.	.	.
.	.	16qqb/	.	[
4r	2b 2f 2d/	4b/)	si	.
4G 4GG\	.	4r	.	.
=3	=3	=3	=3	=3
*k[]	*k[]	*k[]	*	*
!	!	!	!	!LO:HP:a
2A 2AA\	4r	(>2e/	mi	<
.	4e 4c/	.	.	.
.	.	16qqcc/	.	[
4r	2cc 2e 2c/	4cc\)	do	.
4A 4AA\	.	4r	.	.
=4	=4	=4	=4	=4
!	!	!	!	!LO:HP:a
2D 2DD/	4r	(>2f/	fa	<
.	4f 4d/	.	.	.
.	.	16qqdd/	.	[
4r	2dd 2f 2d/	4dd\)	re	.
4D 4DD/	.	4r	.	.
!!LO:LB:g=original
=5	=5	=5	=5	=5
!	!	!	!	!LO:HP:b
2E 2EE/	4r	(>2g/	sol	<
.	4g 4c/	.	.	.
*	*2\right	*	*	*
.	.	16qqee/	.	[
4r	2ee 2cc 2g\	4ee\)	mi	.
4C 4CC/	.	4r	.	.
=6	=6	=6	=6	=6
!	!	!	!	!LO:HP:b
2F 2FF/	4r	(>2a/	la	<
.	4a 4f/	.	.	.
.	.	16qqff/	.	[
4r	2ff 2a 2f\	4ff\)	fa	.
4D 4DD/	.	4r	.	.
=7	=7	=7	=7	=7
*	*	*2\right	*	*
!	!	!	!	!LO:HP:b
2G 2GG/	4r	(<2b\	si	<
.	4b 4g/	.	.	.
.	.	16qqgg/	.	[
4r	2gg 2b 2g\	4gg\)	sol	.
4E 4EE/	.	4r	.	.
=8	=8	=8	=8	=8
!	!	!	!	!LO:HP:b
2A 2AA/	4r	(>2cc\	do	<
.	4cc 4a\	.	.	.
.	.	16qqaa/	.	[
4r	2aa 2cc 2a\	4aa\)	la	.
4F 4FF/	.	4r	.	.
!!LO:LB:g=original
=9||	=9||	=9||	=9||	=9||
!	!	!	!	!LO:HP:b
2F 2FF/	4r	(>2aa\	la	>
.	4aa 4cc 4a\	.	.	.
.	.	16qqcc/	.	]
4r	2cc 2a\	4cc\)	do	.
4A 4AA\	.	4r	.	.
=10	=10	=10	=10	=10
!	!	!	!	!LO:HP:b
2E 2EE/	4r	(>2gg\	sol	>
.	4gg 4b 4g\	.	.	.
.	.	16qqb/	.	]
4r	2b 2g 2d/	4b\)	si	.
4G 4GG\	.	4r	.	.
=11	=11	=11	=11	=11
!	!	!	!	!LO:HP:b
2D 2DD/	4r	(>2ff\	fa	>
.	4ff 4a 4f/	.	.	.
.	.	16qqa/	.	.
4r	2a 2f 2c/	4a/)	la	]
4F 4FF/	.	4r	.	.
=12	=12	=12	=12	=12
!	!	!	!	!LO:HP:b
2C 2CC/	4r	(>2ee\	mi	>
.	4ee 4g 4e/	.	.	.
.	.	16qqg/	.	]
4r	2g 2e 2B/	4g/)	sol	.
4E 4EE/	.	4r	.	.
=13	=13	=13	=13	=13
!	!	!	!	!LO:HP:b
2BB 2BBB/	4r	2dd\	re	>
.	4dd 4g/	.	.	.
.	.	16qqf/	.	]
4rGG	2f 2d 2G</	4f/	fa	.
4BB 4BBB/	.	4r	.	.
!!LO:LB:g=original
=14	=14	=14	=14	=14
!	!	!	!	!LO:HP:b
2C 2CC/	4r	(>2cc\	do	>
.	4cc 4g 4e/	.	.	.
.	.	16qqe/	.	]
4rGG	2e 2c 2G</	4e/)	mi	.
4C 4CC/	.	4r	.	.
=15	=15	=15	=15	=15
!	!	!	!	!LO:HP:b
2GG 2GGG/	4r	(>2b\	si	>
.	4b 4g 4d/	.	.	.
.	.	16qqd/	.	]
4rGG	2d 2B 2G</	4d/)	re	.
4BB 4BBB/	.	4r	.	.
=16	=16	=16	=16	=16
!	!	!	!	!LO:HP:b
2AA 2AAA/	4r	2a/	la	>
.	4a 4e 4c/	.	.	.
.	.	16qqc/	.	]
4rGG	2c 2A< 2E</	4c/	do	.
4AA 4AAA/	.	4r	.	.
=17	=17	=17	=17	=17
!	!	!	!	!LO:HP:b
2FF 2FFF/	4r	1d	re	<
.	4d 4c 4A</	.	.	.
!	!	!	!	!LO:HP:b
4rGG	2d 2B 2G</	.	.	[ >
4GG 4GGG/	.	.	.	.
.	.	16qqc/	.	]
=18	=18	=18	=18	=18
4C 4CC\	4c 4G< 4E</	4c/	do.	.
4r	4r	4r	.	.
2r	2r	2r	.	.
==	==	==	==	==
*-	*-	*-	*-	*-
!!!system-decoration: s1{(s2,s3)}
!!!RDF**kern: > = above
!!!RDF**kern: < = below
!!!EED: Antoni Szymański
!!!EST: 2021-06-03
!!!ENC: Katarzyna Serwa
!!!END: 2021-05-17
